X:1
T:Welcome, Yule! - Parry
T:#
%%score [ 1 2 3 4 ]
L:1/8
Q:1/4=90
M:4/4
K:Bb
V:1 treble nm="Soprano"
V:2 treble nm="Alto"
V:3 treble-8 nm="Tenor"
V:4 bass nm="Bass"
V:1
"^Vivace"!f!"^Charles Hubert Hastings Parry\n(1848-1918)""^Welcome, Yule!" .B.d z2 z4 | %1
w: Wel- come,|
!f! .B.d!mf!!<(!FG AB !tenuto!c2!<)! |!f! .B.d z2 z4 |!f!!<(! (df- f/!<)!e/d cBc)d | (edc)A B4 || %5
w: Wel- come, born on this morn- ing,|Wel- come,|Wel\- * * * * * * * come,|wel\- * * come, Yule!|
!f! .B.d z2 z4 |!f! .B.d!mf! F/F/G!<(! AB!<)! !tenuto!c2 |!f! .B.d z2 z4 | %8
w: Wel- come,|Wel- come, In- no- cents ev- 'ry one,|Wel- come,|
!p! (df-"^cresc." f/e/d cBc)d | (edc)A !>!B4 ||!f! .d.D z2 z4 | .d.DGA BG !tenuto!A2 | .d.D z2 z4 | %13
w: Wel\- * * * * * * * come,|wel\- * * come, Yule!|Wel- come,|Wel- come, Twelfth- day both in fere,|Wel- come,|
 (cf- f/=e/d cBc)d | (edc)B A4 ||!f! .d.D z2 z4 |!f! .d.DGA BG !tenuto!A2 |!f! .d.D z2 z4 | %18
w: Wel\- * * * * * * * come,|wel\- * * come, Yule!|Wel- come,|Wel- come be ye, Queen of Bliss,|Wel- come,|
!f! (cf- f/=e/d cBc)d | (edc)G F4 ||"^Animato"!f! .B.dBA GF !tenuto!E2 | cecB AG !tenuto!A2 | %22
w: Wel- * * * * * * * come,|wel\- * * come, Yule!|Wel- come be ye that are here,|Wel- come all, and make good cheer,|
 dfdc BA B2 |!ff! (eg- g/f/e df-f/e/)d | !>!ce!>!Bd !>!Ac!>!GB | F4!ff!!<(! !>!d!<)!.f z2 | %26
w: Wel- come all, an- oth- er year,|Wel\- * * * * * * * * come,|wel- come, wel- come, wel- come, wel- come,|Yule, wel- come,|
 !>!B4 z4 |] %27
w: Yule!|
V:2
!f! .F.B!mf!DE F/E/D !tenuto!G2 |!f! .F.B z2 z4 |!f! .F.B!mf!GB AF !tenuto!G2 | %3
w: Wel- come, be Thou hea- ven- ly King,|Wel- come,|Wel- come for whom we shall sing,|
!f!!<(! (B_A/G/!<)! FB G3) F | (EF G) (F/E/) D4 ||!f! .F.B!mf!DE F/E/D !tenuto!G2 |!f! .F.B z2 z4 | %7
w: Wel\- * * * * * come,|wel\- * * come, * Yule!|Wel- come be ye Ste- phen and John,|Wel- come,|
!f! .F.B!mf!GB AF !tenuto!G2 |!p! (B_A/G/"^cresc." FB G3) F | (EF G) (F/E/) !>!D4 || %10
w: Wel- come, Thom- as, Mar- tyr one,|Wel\- * * * * * come,|wel\- * * come, * Yule!|
!f! .^F.DFG AF !tenuto!=E2 | .A.D z2 z4 | .A.D (AB) cA !tenuto!G2 | (FG/A/ BF/G/ AGA)B | %14
w: Wel- come be ye, good New Year,|Wel- come,|Wel- come, Saints, * loved and dear,|Wel\- * * * * * * * * come,|
 (cB/A/ G)F =E4 ||!f! .^F.DFG AF !tenuto!=E2 |!f! .A.D z2 z4 |!f! .A.DAB cA !tenuto!G2 | %18
w: wel\- * * * come, Yule!|Wel- come be ye, Can- dle- mas,|Wel- come,|Wel- come, both to more and less,|
!f! (FG/A/ BF/G/ AGA)B | (cB/A/ G)E F4 ||!f! .F.DEF ED !tenuto!E2 | GEFG F=E !tenuto!F2 | %22
w: Wel\- * * * * * * * * come,|wel\- * * * come, Yule!|Wel- come be ye that are here,|Wel- come all, and make good cheer,|
 A"^cresc."FGA GF G2 |!ff! (GB dc BF/G/ _A)B | !>!EG!>!DF !>!CG!>!ED | C4!ff!!<(! !>!A!<)!.F z2 | %26
w: Wel- come all, an- oth- er year,|Wel\- * * * * * * * come,|wel- come, wel- come, wel- come, wel- come,|Yule, wel- come,|
 !>!F4 z4 |] %27
w: Yule!|
V:3
!f! .d.f!mf!Bc d/c/B !tenuto!e2 |!f! .d.f z2 z4 |!f! .d.f!mf!ed cd !tenuto!e2 | %3
w: Wel- come, be Thou hea- ven- ly King,|Wel- come,|Wel- come for whom we shall sing,|
!f!!<(! (f2!<)! cd edc)=B | (cf e/d/)c B4 ||!f! .d.f!mf!Bc d/c/B !tenuto!e2 |!f! .d.f z2 z4 | %7
w: Wel\- * * * * * come,|wel\- * * * come, Yule!|Wel- come, be ye Ste- phen and John,|Wel- come,|
!f! .d.f!mf!ed cd !tenuto!e2 |!p! (f2"^cresc." cd edc)=B | (cf e/d/)c !>!B4 || %10
w: Wel- come, Thom- as, Mar- tyr one,|Wel\- * * * * * come,|wel\- * * * come, Yule!|
!f! .d.dd=e ^fd !tenuto!^c2 | .^f.d z2 z4 | .^f.d (=fd) cd !tenuto!=e2 | (fc dB fdf)f | %14
w: Wel- come be ye, good New Year,|Wel- come,|Wel- come, Saints, * loved and dear,|Wel\- * * * * * * come,|
 (efe)d ^c4 ||!f! .d.dd=e ^fd !tenuto!^c2 |!f! .^f.d z2 z4 |!f! .^f.d=fd cd !tenuto!=e2 | %18
w: wel\- * * come, Yule!|Wel- come be ye, Can- dle~- mas,|Wel- come,|Wel- come, both to more and less,|
!f! (fc dB fdf)f | (efe)B c4 ||!f! .d.BGB B_A !tenuto!B2 | eccc cB !tenuto!c2 | %22
w: Wel\- * * * * * * come,|wel\- * * come, Yule!|Wel- come be ye that are here,|Wel- come all, and make good cheer,|
 f"^cresc."Afe dc d2 |!ff! (cd- d/e/f fe/d/ c)B | !>!cB!>!BA !>!Ae!>!cB | %25
w: Wel- come all, an- oth- er year,|Wel\- * * * * * * * * come,|wel- come, wel- come, wel- come, wel- come,|
 A4!ff!!<(! !>!f!<)!.A z2 | !>!d4 z4 |] %27
w: Yule, wel- come,|Yule!|
V:4
!f! .B,.B,, z2 z4 |!f! .B,.B,,!mf!!<(!D,E, F,G, !tenuto!A,2!<)! |!f! .B,.B,, z2 z4 | %3
w: Wel- come,|Wel- come, born on this morn- ing,|\_Wel- come,|
!f!!<(! (B,F,/G,/!<)! _A,B, CG,E,)D, | (C,D,E,)F, B,,4 ||!f! .B,.B,, z2 z4 | %6
w: Wel\- * * * * * * * come,|wel\- * * come, Yule!|Wel- come,|
!f! .B,.B,,!mf! D,/D,/E,!<(! F,G,!<)! !tenuto!A,2 |!f! .B,.B,, z2 z4 | %8
w: Wel- come, In- no- cents ev- 'ry one,|Wel- come,|
!p! (B,F,/G,/"^cresc." _A,B, CG,E,)D, | (C,D,E,)F, !>!B,,4 ||!f! .D.D, z2 z4 | %11
w: Wel\- * * * * * * * come,|wel\- * * come, Yule!|Wel- come,|
 .D.D,B,A, G,B, !tenuto!D2 | .D.D, (DB,) A,=B, !tenuto!C2 | (A,F, D,>=E, F,G,F,)D, | %14
w: Wel- come, Twelfth- day both in fere,|Wel- come, Saints, * loved and dear,|Wel\- * * * * * * come,|
 (C,D, E,) (F,/G,/) A,4 ||!f! .D.D, z2 z4 |!f! .D.D,B,A, G,B, !tenuto!D2 | %17
w: wel\- * * come, * Yule!|Wel- come,|Wel- come be ye, Queen of Bliss,|
!f! .D.D,DB, A,=B, !tenuto!C2 |!f! (A,F, D,>=E, F,G,F,)D, | (C,D,E,)G, A,4 || %20
w: Wel- come, both to more and less,|Wel\- * * * * * * come,|wel\- * * come, Yule!|
!f! .B,.B,,C,D, E,F, !tenuto!G,2 | CC,D,E, F,G, !tenuto!F,2 | D"^cresc."D,E,F, G,A, G,2 | %23
w: Wel- come be ye that are here,|Wel- come all, and make good cheer,|Wel- come all, an- oth- er year,|
!ff! (CG, B,C DD,F,)G, | !>!_A,E,!>!G,D, !>!F,C,!>!E,B,, | F,4!ff!!<(! !>!D!<)!.D, z2 | %26
w: Wel\- * * * * * * come,|wel- come, wel- come, wel- come, wel- come,|Yule, wel- come,|
 !>!B,4 z4 |] %27
w: Yule!|

